X:516
T:Reel 516
M:4/4
K:Gmaj
L:1/8
dc|BABc defe|dGGB AGF2|BABc d2ga|bgaf dggd|BABc d2gf|d=fcA AGFA|BABc d2d'c'|bgaf dgga|babc' d'bgb|agfg abc'a|bc'bg c'2c'a|bgaf g2ga|babc' bbc'b|abc'b aff2|gbac' b2ag|fdcA BGAF|
